svgs/regular/chart-simple-horizontal.svg

<svg xmlns="http://www.w3.org/2000/svg" viewBox="0 0 448 512"><!--! Font Awesome Pro 6.4.2 by @fontawesome - https://fontawesome.com License - https://fontawesome.com/license (Commercial License) Copyright 2023 Fonticons, Inc. --><path d="M400 240L48 240l0 32 352 0 0-32zm48 32c0 26.5-21.5 48-48 48L48 320c-26.5 0-48-21.5-48-48l0-32c0-26.5 21.5-48 48-48l352 0c26.5 0 48 21.5 48 48l0 32zM208 400L48 400l0 32 160 0 0-32zm48 32c0 26.5-21.5 48-48 48L48 480c-26.5 0-48-21.5-48-48l0-32c0-26.5 21.5-48 48-48l160 0c26.5 0 48 21.5 48 48l0 32zm80-320l0-32L48 80l0 32 288 0zm0 48L48 160c-26.5 0-48-21.5-48-48L0 80C0 53.5 21.5 32 48 32l288 0c26.5 0 48 21.5 48 48l0 32c0 26.5-21.5 48-48 48z"/></svg>

<svg xmlns="http://www.w3.org/2000/svg" viewBox="0 0 448 512"><!--! Font Awesome Pro 6.1.1 by @fontawesome - https://fontawesome.com License - https://fontawesome.com/license (Commercial License) Copyright 2022 Fonticons, Inc. --><path d="M448 272C448 298.5 426.5 320 400 320H48C21.49 320 0 298.5 0 272V240C0 213.5 21.49 192 48 192H400C426.5 192 448 213.5 448 240V272zM48 240V272H400V240H48zM256 432C256 458.5 234.5 480 208 480H48C21.49 480 0 458.5 0 432V400C0 373.5 21.49 352 48 352H208C234.5 352 256 373.5 256 400V432zM48 400V432H208V400H48zM48 160C21.49 160 0 138.5 0 112V80C0 53.49 21.49 32 48 32H336C362.5 32 384 53.49 384 80V112C384 138.5 362.5 160 336 160H48zM336 112V80H48V112H336z"/></svg>
